X:2648
T:Careao (Cadavéu - Valdés)
C:Trad.
M:3/8
L:1/8
Q:3/8=72
K:G
|G3/2A/B|cBA|G3/2A/B|cBA|G3|A z2|
|A3/2A/A|GFE|D3/2A/A|GFE|D2G|G z2|
K:C
|c2 c|cBc|d B2|dcB|d c2|z3|
|c2 c|cBc|d B2|dcB|d c2|
|: cBA|GEF|GAB|A G2 :|


